X: 39021
T: Swan And Dolphin
R: reel
M: 4/4
K: Amajor
|:ABce c2Bc|AFFF FBAF|DEEE EFAB|cBBA B2Bc|
ABce c2Bc|AFFF FBAF|EAAE FAdc|1 BAGB A4:|2 BAGB ABcd||
eAAA fgaf|eAcA Bcdf|eAAA fgaf|eAcA B2cd|
eAAA fgaf|eAcA BAFA|EAAE FAdc|BAGB ABcd|
eAAf AAaf|eAcA Bcdf|eAAf AAaf|eAcA BAFA|
EAAA GBBB|Accc BddB|cefg afec|BAGB AecB||

